remix/Editor/font-size-2.svg

<svg viewBox="0 0 24 24" xmlns="http://www.w3.org/2000/svg"><path fill="none" d="M0 0h24v24H0Z"/><path d="M10 6v15H8V6H2V4h14v2h-6Zm8 8v7h-2v-7h-3v-2h8v2h-3Z"/></svg>

<svg viewBox="0 0 24 24" fill="currentColor" xmlns="http://www.w3.org/2000/svg"><path d="M10 6V21H8V6H2V4H16V6H10ZM18 14V21H16V14H13V12H21V14H18Z"/></svg>
